X:1
T:Title
%%score 1 ( 2 3 )
L:1/8
Q:1/4=140
M:2/2
K:Ab
V:1 treble nm="Strings 1, Treble"
V:2 bass nm="Strings 1, Bass"
V:3 bass 
V:1
 z4 z [Ec][Ec][Dd] | [Ce]2 [Ce]2 [B,e]2 [De]2 | [Ce]4- [Ce][Ec][Ec][Ed] | [Ee]2 [Ec]2 [Ed]2 [Ee]2 | %4
 [Ee]4- [Ee][Ae][Ae][Ge] | [Ae]2 [Ae]2 [Ac]2 [Ge]2 | [Fd]4- [Fd][Fd][Fd][Fd] | %7
 [Ec] [Ee]3 [Ee]2 [Gd]2 | [Ac]4- [Ac][Ac][Ac][Ac] | [Ae]2 [Be]2 [ce]2 [Ae]2 | %10
 [Fd]4- [Fd][Fd][Fd][Ad] | [Be]2 [Ae]2 [Ge]2 [Fe]2 | [Ee]4- [Ee][Ae][Ae][Ge] | %13
 [Ae]2 [Ae]2 [Ac]2 [Ge]2 | [Fd]4- [Fd][Fd][Fd][Fd] | %15
 [Ec] [Ee]3 [Ee]2[Q:1/4=111] [Gd]2[Q:1/4=12][Q:1/4=137][Q:1/4=134][Q:1/4=131][Q:1/4=129][Q:1/4=126][Q:1/4=123][Q:1/4=120][Q:1/4=117][Q:1/4=114][Q:1/4=111] | %16
 .[Ac]8[Q:1/4=106][Q:1/4=103][Q:1/4=100][Q:1/4=97][Q:1/4=94][Q:1/4=91] |] %17
V:2
 z4 z [A,,A,][A,,A,][=E,,B,] | [E,,C]2 [E,,A,]2 [G,,E,]2 [B,,G,]2 | %2
w: 1.~I~ must~ not~|make~ this~ world~ my~|
 [A,,A,]4- [A,,A,][A,,A,][C,A,][E,B,] | [A,C]2 [E,A,]2 [E,B,]2 [B,,E]2 | %4
w: home,~ * For~ it~ shall~|soon~ be~ left~ be|
 [E,,E,E]4- [E,,E,E][A,,C][A,,C][B,,D] | [C,E]2 [A,,C]2 [C,A,]2 E,2 | .F,4 z4 | %7
w: hind;~ * And~ when~ the~|part ing~ day~ has~|come,~|
 [A,,C] [A,,C]3 [E,,E,C]2 [E,,E,B,]2 | [A,,A,]4- [A,,A,][A,,A,][A,,A,][A,,A,] | %9
w: fu ture~ will~ I~|find?~ * * * *|
 [A,,A,]2 [B,,B,]2 [C,C]2 [A,,E]2 | .F,8 | B,2 A,2 G,2 [F,B,]2 | E,4- E,[A,,C][A,,C][B,,D] | %13
w: ||||
 [C,E]2 [A,,C]2 [C,A,]2 E,2 | .F,4 z4 | [A,,C] [A,,C]3 [E,,E,C]2 [E,,E,B,]2 | .[A,,A,]8 |] %17
w: ||||
V:3
 x8 | x8 | x8 | x8 | x8 | x8 | D,C, [B,,D]2- [B,,D][B,,D][=A,,D][A,,D] | x8 | x8 | x8 | %10
w: ||||||* * * * What~ sort~ of~||||
 D,3 C, B,,[B,,F,][D,F,][F,A,] | x8 | x8 | x8 | D,C, [B,,D]2- [B,,D][B,,D][=A,,D][A,,D] | x8 | %16
w: ||||||
 x8 |] %17
w: |

